images/content/johnson-solids/augmented-sphenocorona.svg

<?xml version="1.0" encoding="UTF-8"?>
<svg xmlns="http://www.w3.org/2000/svg" xmlns:xlink="http://www.w3.org/1999/xlink" width="204.85pt" height="188.89pt" viewBox="0 0 204.85 188.89" version="1.2">
<defs>
<clipPath id="clip1">
  <path d="M 136 59 L 204.699219 59 L 204.699219 152 L 136 152 Z M 136 59 "/>
</clipPath>
<clipPath id="clip2">
  <path d="M 136 58 L 204.699219 58 L 204.699219 152 L 136 152 Z M 136 58 "/>
</clipPath>
<clipPath id="clip3">
  <path d="M 64 0.015625 L 151 0.015625 L 151 94 L 64 94 Z M 64 0.015625 "/>
</clipPath>
<clipPath id="clip4">
  <path d="M 85 0.015625 L 176 0.015625 L 176 60 L 85 60 Z M 85 0.015625 "/>
</clipPath>
<clipPath id="clip5">
  <path d="M 150 17 L 204.699219 17 L 204.699219 114 L 150 114 Z M 150 17 "/>
</clipPath>
<clipPath id="clip6">
  <path d="M 149 17 L 204.699219 17 L 204.699219 114 L 149 114 Z M 149 17 "/>
</clipPath>
<clipPath id="clip7">
  <path d="M 136 113 L 204.699219 113 L 204.699219 188.765625 L 136 188.765625 Z M 136 113 "/>
</clipPath>
<clipPath id="clip8">
  <path d="M 58 122 L 141 122 L 141 188.765625 L 58 188.765625 Z M 58 122 "/>
</clipPath>
<clipPath id="clip9">
  <path d="M 58 122 L 142 122 L 142 188.765625 L 58 188.765625 Z M 58 122 "/>
</clipPath>
<clipPath id="clip10">
  <path d="M 0 0.015625 L 86 0.015625 L 86 94 L 0 94 Z M 0 0.015625 "/>
</clipPath>
<clipPath id="clip11">
  <path d="M 0 0.015625 L 87 0.015625 L 87 94 L 0 94 Z M 0 0.015625 "/>
</clipPath>
<clipPath id="clip12">
  <path d="M 0 0.015625 L 86 0.015625 L 86 42 L 0 42 Z M 0 0.015625 "/>
</clipPath>
<clipPath id="clip13">
  <path d="M 0 0.015625 L 87 0.015625 L 87 43 L 0 43 Z M 0 0.015625 "/>
</clipPath>
<clipPath id="clip14">
  <path d="M 82 0.015625 L 176 0.015625 L 176 18 L 82 18 Z M 82 0.015625 "/>
</clipPath>
<clipPath id="clip15">
  <path d="M 82 0.015625 L 176 0.015625 L 176 19 L 82 19 Z M 82 0.015625 "/>
</clipPath>
<clipPath id="clip16">
  <path d="M 160 17 L 204.699219 17 L 204.699219 114 L 160 114 Z M 160 17 "/>
</clipPath>
<clipPath id="clip17">
  <path d="M 140 100 L 204.699219 100 L 204.699219 188.765625 L 140 188.765625 Z M 140 100 "/>
</clipPath>
<clipPath id="clip18">
  <path d="M 58 100 L 161 100 L 161 188.765625 L 58 188.765625 Z M 58 100 "/>
</clipPath>
<clipPath id="clip19">
  <path d="M 58 100 L 162 100 L 162 188.765625 L 58 188.765625 Z M 58 100 "/>
</clipPath>
</defs>
<g id="surface1">
<g clip-path="url(#clip1)" clip-rule="nonzero">
<path style=" stroke:none;fill-rule:nonzero;fill:rgb(50.953674%,40.184021%,72.853088%);fill-opacity:1;" d="M 204.371094 113.34375 L 136.515625 151.300781 L 150.160156 59.054688 Z M 204.371094 113.34375 "/>
</g>
<g clip-path="url(#clip2)" clip-rule="nonzero">
<path style="fill:none;stroke-width:6.54;stroke-linecap:round;stroke-linejoin:round;stroke:rgb(13.729858%,12.159729%,12.548828%);stroke-opacity:1;stroke-miterlimit:10;" d="M 2045.207431 754.774115 L 1366.155876 374.925865 L 1502.7011 1298.062268 Z M 2045.207431 754.774115 " transform="matrix(0.0999268,0,0,-0.0999268,0,188.765934)"/>
</g>
<path style="fill-rule:nonzero;fill:rgb(73.832703%,56.09436%,71.220398%);fill-opacity:1;stroke-width:6.54;stroke-linecap:round;stroke-linejoin:round;stroke:rgb(13.729858%,12.159729%,12.548828%);stroke-opacity:1;stroke-miterlimit:10;" d="M 643.869562 957.578759 L 1502.7011 1298.062268 L 1366.155876 374.925865 Z M 643.869562 957.578759 " transform="matrix(0.0999268,0,0,-0.0999268,0,188.765934)"/>
<g clip-path="url(#clip3)" clip-rule="nonzero">
<path style="fill-rule:nonzero;fill:rgb(75.556946%,52.096558%,63.580322%);fill-opacity:1;stroke-width:6.54;stroke-linecap:round;stroke-linejoin:round;stroke:rgb(13.729858%,12.159729%,12.548828%);stroke-opacity:1;stroke-miterlimit:10;" d="M 1502.7011 1298.062268 L 643.869562 957.578759 L 858.245172 1885.60155 Z M 1502.7011 1298.062268 " transform="matrix(0.0999268,0,0,-0.0999268,0,188.765934)"/>
</g>
<g clip-path="url(#clip4)" clip-rule="nonzero">
<path style="fill-rule:nonzero;fill:rgb(49.121094%,15.328979%,37.004089%);fill-opacity:1;stroke-width:6.54;stroke-linecap:round;stroke-linejoin:round;stroke:rgb(13.729858%,12.159729%,12.548828%);stroke-opacity:1;stroke-miterlimit:10;" d="M 1753.822347 1711.411594 L 1502.7011 1298.062268 L 858.245172 1885.60155 Z M 1753.822347 1711.411594 " transform="matrix(0.0999268,0,0,-0.0999268,0,188.765934)"/>
</g>
<g clip-path="url(#clip5)" clip-rule="nonzero">
<path style=" stroke:none;fill-rule:nonzero;fill:rgb(27.401733%,16.070557%,47.799683%);fill-opacity:1;" d="M 204.371094 113.34375 L 150.160156 59.054688 L 175.253906 17.75 Z M 204.371094 113.34375 "/>
</g>
<g clip-path="url(#clip6)" clip-rule="nonzero">
<path style="fill:none;stroke-width:6.54;stroke-linecap:round;stroke-linejoin:round;stroke:rgb(13.729858%,12.159729%,12.548828%);stroke-opacity:1;stroke-miterlimit:10;" d="M 2045.207431 754.774115 L 1502.7011 1298.062268 L 1753.822347 1711.411594 Z M 2045.207431 754.774115 " transform="matrix(0.0999268,0,0,-0.0999268,0,188.765934)"/>
</g>
<g clip-path="url(#clip7)" clip-rule="nonzero">
<path style="fill-rule:nonzero;fill:rgb(32.110596%,42.910767%,74.562073%);fill-opacity:1;stroke-width:6.54;stroke-linecap:round;stroke-linejoin:round;stroke:rgb(13.729858%,12.159729%,12.548828%);stroke-opacity:1;stroke-miterlimit:10;" d="M 1409.195181 3.286746 L 1366.155876 374.925865 L 2045.207431 754.774115 Z M 1409.195181 3.286746 " transform="matrix(0.0999268,0,0,-0.0999268,0,188.765934)"/>
</g>
<g clip-path="url(#clip8)" clip-rule="nonzero">
<path style=" stroke:none;fill-rule:nonzero;fill:rgb(85.107422%,94.445801%,83.879089%);fill-opacity:1;" d="M 136.515625 151.300781 L 140.816406 188.4375 L 58.339844 122.84375 "/>
</g>
<g clip-path="url(#clip9)" clip-rule="nonzero">
<path style="fill:none;stroke-width:6.54;stroke-linecap:round;stroke-linejoin:round;stroke:rgb(13.729858%,12.159729%,12.548828%);stroke-opacity:1;stroke-miterlimit:10;" d="M 1366.155876 374.925865 L 1409.195181 3.286746 L 583.825627 659.704552 " transform="matrix(0.0999268,0,0,-0.0999268,0,188.765934)"/>
</g>
<path style="fill-rule:nonzero;fill:rgb(85.107422%,94.445801%,83.879089%);fill-opacity:1;stroke-width:6.54;stroke-linecap:round;stroke-linejoin:round;stroke:rgb(13.729858%,12.159729%,12.548828%);stroke-opacity:1;stroke-miterlimit:10;" d="M 583.825627 659.704552 L 643.869562 957.578759 L 1366.155876 374.925865 " transform="matrix(0.0999268,0,0,-0.0999268,0,188.765934)"/>
<g clip-path="url(#clip10)" clip-rule="nonzero">
<path style=" stroke:none;fill-rule:nonzero;fill:rgb(80.825806%,55.107117%,60.160828%);fill-opacity:1;" d="M 0.328125 41.765625 L 85.761719 0.34375 L 64.339844 93.078125 Z M 0.328125 41.765625 "/>
</g>
<g clip-path="url(#clip11)" clip-rule="nonzero">
<path style="fill:none;stroke-width:6.54;stroke-linecap:round;stroke-linejoin:round;stroke:rgb(13.729858%,12.159729%,12.548828%);stroke-opacity:1;stroke-miterlimit:10;" d="M 3.283653 1471.079491 L 858.245172 1885.60155 L 643.869562 957.578759 Z M 3.283653 1471.079491 " transform="matrix(0.0999268,0,0,-0.0999268,0,188.765934)"/>
</g>
<path style="fill-rule:nonzero;fill:rgb(88.232422%,95.098877%,77.14386%);fill-opacity:1;stroke-width:6.54;stroke-linecap:round;stroke-linejoin:round;stroke:rgb(13.729858%,12.159729%,12.548828%);stroke-opacity:1;stroke-miterlimit:10;" d="M 583.825627 659.704552 L 3.283653 1471.079491 L 643.869562 957.578759 Z M 583.825627 659.704552 " transform="matrix(0.0999268,0,0,-0.0999268,0,188.765934)"/>
<g clip-path="url(#clip12)" clip-rule="nonzero">
<path style=" stroke:none;fill-rule:nonzero;fill:rgb(30.056763%,52.090454%,80.316162%);fill-opacity:1;" d="M 82.738281 17.371094 L 85.761719 0.34375 L 0.328125 41.765625 Z M 82.738281 17.371094 "/>
</g>
<g clip-path="url(#clip13)" clip-rule="nonzero">
<path style="fill:none;stroke-width:6.54;stroke-linecap:round;stroke-linejoin:round;stroke:rgb(13.729858%,12.159729%,12.548828%);stroke-opacity:1;stroke-miterlimit:10;" d="M 827.988658 1715.203431 L 858.245172 1885.60155 L 3.283653 1471.079491 Z M 827.988658 1715.203431 " transform="matrix(0.0999268,0,0,-0.0999268,0,188.765934)"/>
</g>
<g clip-path="url(#clip14)" clip-rule="nonzero">
<path style=" stroke:none;fill-rule:nonzero;fill:rgb(52.931213%,84.783936%,95.43457%);fill-opacity:1;" d="M 175.253906 17.75 L 85.761719 0.34375 L 82.738281 17.371094 Z M 175.253906 17.75 "/>
</g>
<g clip-path="url(#clip15)" clip-rule="nonzero">
<path style="fill:none;stroke-width:6.54;stroke-linecap:round;stroke-linejoin:round;stroke:rgb(13.729858%,12.159729%,12.548828%);stroke-opacity:1;stroke-miterlimit:10;" d="M 1753.822347 1711.411594 L 858.245172 1885.60155 L 827.988658 1715.203431 Z M 1753.822347 1711.411594 " transform="matrix(0.0999268,0,0,-0.0999268,0,188.765934)"/>
</g>
<g clip-path="url(#clip16)" clip-rule="nonzero">
<path style="fill-rule:nonzero;fill:rgb(96.595764%,82.841492%,61.407471%);fill-opacity:1;stroke-width:6.54;stroke-linecap:round;stroke-linejoin:round;stroke:rgb(13.729858%,12.159729%,12.548828%);stroke-opacity:1;stroke-miterlimit:10;" d="M 1609.224356 884.126576 L 2045.207431 754.774115 L 1753.822347 1711.411594 Z M 1609.224356 884.126576 " transform="matrix(0.0999268,0,0,-0.0999268,0,188.765934)"/>
</g>
<g clip-path="url(#clip17)" clip-rule="nonzero">
<path style="fill-rule:nonzero;fill:rgb(91.511536%,54.508972%,37.390137%);fill-opacity:1;stroke-width:6.54;stroke-linecap:round;stroke-linejoin:round;stroke:rgb(13.729858%,12.159729%,12.548828%);stroke-opacity:1;stroke-miterlimit:10;" d="M 1409.195181 3.286746 L 2045.207431 754.774115 L 1609.224356 884.126576 Z M 1409.195181 3.286746 " transform="matrix(0.0999268,0,0,-0.0999268,0,188.765934)"/>
</g>
<path style="fill-rule:nonzero;fill:rgb(55.110168%,38.314819%,69.636536%);fill-opacity:1;stroke-width:6.54;stroke-linecap:round;stroke-linejoin:round;stroke:rgb(13.729858%,12.159729%,12.548828%);stroke-opacity:1;stroke-miterlimit:10;" d="M 827.988658 1715.203431 L 3.283653 1471.079491 L 583.825627 659.704552 Z M 827.988658 1715.203431 " transform="matrix(0.0999268,0,0,-0.0999268,0,188.765934)"/>
<path style="fill-rule:nonzero;fill:rgb(80.262756%,74.589539%,82.254028%);fill-opacity:1;stroke-width:6.54;stroke-linecap:round;stroke-linejoin:round;stroke:rgb(13.729858%,12.159729%,12.548828%);stroke-opacity:1;stroke-miterlimit:10;" d="M 1753.822347 1711.411594 L 827.988658 1715.203431 L 1609.224356 884.126576 Z M 1753.822347 1711.411594 " transform="matrix(0.0999268,0,0,-0.0999268,0,188.765934)"/>
<g clip-path="url(#clip18)" clip-rule="nonzero">
<path style=" stroke:none;fill-rule:nonzero;fill:rgb(63.48114%,36.819458%,58.695984%);fill-opacity:1;" d="M 160.804688 100.417969 L 58.339844 122.84375 L 140.816406 188.4375 Z M 160.804688 100.417969 "/>
</g>
<g clip-path="url(#clip19)" clip-rule="nonzero">
<path style="fill:none;stroke-width:6.54;stroke-linecap:round;stroke-linejoin:round;stroke:rgb(13.729858%,12.159729%,12.548828%);stroke-opacity:1;stroke-miterlimit:10;" d="M 1609.224356 884.126576 L 583.825627 659.704552 L 1409.195181 3.286746 Z M 1609.224356 884.126576 " transform="matrix(0.0999268,0,0,-0.0999268,0,188.765934)"/>
</g>
<path style="fill-rule:nonzero;fill:rgb(62.957764%,43.196106%,68.504333%);fill-opacity:1;stroke-width:6.54;stroke-linecap:round;stroke-linejoin:round;stroke:rgb(13.729858%,12.159729%,12.548828%);stroke-opacity:1;stroke-miterlimit:10;" d="M 827.988658 1715.203431 L 583.825627 659.704552 L 1609.224356 884.126576 Z M 827.988658 1715.203431 " transform="matrix(0.0999268,0,0,-0.0999268,0,188.765934)"/>
</g>
</svg>

<svg xmlns="http://www.w3.org/2000/svg" width="273.133" height="251.853" viewBox="0 0 204.85 188.89" version="1.2"><defs><clipPath id="a"><path d="M136 59h68.7v93H136Zm0 0"/></clipPath><clipPath id="b"><path d="M136 58h68.7v94H136Zm0 0"/></clipPath><clipPath id="c"><path d="M64 .016h87V94H64Zm0 0"/></clipPath><clipPath id="d"><path d="M85 .016h91V60H85Zm0 0"/></clipPath><clipPath id="e"><path d="M150 17h54.7v97H150Zm0 0"/></clipPath><clipPath id="f"><path d="M149 17h55.7v97H149Zm0 0"/></clipPath><clipPath id="g"><path d="M136 113h68.7v75.766H136Zm0 0"/></clipPath><clipPath id="h"><path d="M58 122h83v66.766H58Zm0 0"/></clipPath><clipPath id="i"><path d="M58 122h84v66.766H58Zm0 0"/></clipPath><clipPath id="j"><path d="M0 .016h86V94H0Zm0 0"/></clipPath><clipPath id="k"><path d="M0 .016h87V94H0Zm0 0"/></clipPath><clipPath id="l"><path d="M0 .016h86V42H0Zm0 0"/></clipPath><clipPath id="m"><path d="M0 .016h87V43H0Zm0 0"/></clipPath><clipPath id="n"><path d="M82 .016h94V18H82Zm0 0"/></clipPath><clipPath id="o"><path d="M82 .016h94V19H82Zm0 0"/></clipPath><clipPath id="p"><path d="M160 17h44.7v97H160Zm0 0"/></clipPath><clipPath id="q"><path d="M140 100h64.7v88.766H140Zm0 0"/></clipPath><clipPath id="r"><path d="M58 100h103v88.766H58Zm0 0"/></clipPath><clipPath id="s"><path d="M58 100h104v88.766H58Zm0 0"/></clipPath></defs><g clip-path="url(#a)"><path style="stroke:none;fill-rule:nonzero;fill:#8266ba;fill-opacity:1" d="M204.371 113.344 136.516 151.3l13.644-92.246Zm0 0"/></g><g clip-path="url(#b)"><path style="fill:none;stroke-width:6.54;stroke-linecap:round;stroke-linejoin:round;stroke:#231f20;stroke-opacity:1;stroke-miterlimit:10" d="m2045.207 754.774-679.051-379.848 136.545 923.136Zm0 0" transform="matrix(.09993 0 0 -.09993 0 188.766)"/></g><path style="fill-rule:nonzero;fill:#bc8fb6;fill-opacity:1;stroke-width:6.54;stroke-linecap:round;stroke-linejoin:round;stroke:#231f20;stroke-opacity:1;stroke-miterlimit:10" d="m643.87 957.579 858.831 340.483-136.545-923.136Zm0 0" transform="matrix(.09993 0 0 -.09993 0 188.766)"/><g clip-path="url(#c)"><path style="fill-rule:nonzero;fill:#c185a2;fill-opacity:1;stroke-width:6.54;stroke-linecap:round;stroke-linejoin:round;stroke:#231f20;stroke-opacity:1;stroke-miterlimit:10" d="M1502.701 1298.062 643.87 957.58l214.375 928.023Zm0 0" transform="matrix(.09993 0 0 -.09993 0 188.766)"/></g><g clip-path="url(#d)"><path style="fill-rule:nonzero;fill:#7d275e;fill-opacity:1;stroke-width:6.54;stroke-linecap:round;stroke-linejoin:round;stroke:#231f20;stroke-opacity:1;stroke-miterlimit:10" d="m1753.822 1711.412-251.12-413.35-644.457 587.54Zm0 0" transform="matrix(.09993 0 0 -.09993 0 188.766)"/></g><g clip-path="url(#e)"><path style="stroke:none;fill-rule:nonzero;fill:#46297a;fill-opacity:1" d="m204.371 113.344-54.21-54.29 25.093-41.304Zm0 0"/></g><g clip-path="url(#f)"><path style="fill:none;stroke-width:6.54;stroke-linecap:round;stroke-linejoin:round;stroke:#231f20;stroke-opacity:1;stroke-miterlimit:10" d="m2045.207 754.774-542.506 543.288 251.121 413.35Zm0 0" transform="matrix(.09993 0 0 -.09993 0 188.766)"/></g><g clip-path="url(#g)"><path style="fill-rule:nonzero;fill:#526dbe;fill-opacity:1;stroke-width:6.54;stroke-linecap:round;stroke-linejoin:round;stroke:#231f20;stroke-opacity:1;stroke-miterlimit:10" d="m1409.195 3.287-43.04 371.639 679.052 379.848Zm0 0" transform="matrix(.09993 0 0 -.09993 0 188.766)"/></g><g clip-path="url(#h)"><path style="stroke:none;fill-rule:nonzero;fill:#d9f1d6;fill-opacity:1" d="m136.516 151.3 4.3 37.137-82.476-65.593"/></g><g clip-path="url(#i)"><path style="fill:none;stroke-width:6.54;stroke-linecap:round;stroke-linejoin:round;stroke:#231f20;stroke-opacity:1;stroke-miterlimit:10" d="m1366.156 374.926 43.04-371.64-825.37 656.419" transform="matrix(.09993 0 0 -.09993 0 188.766)"/></g><path style="fill-rule:nonzero;fill:#d9f1d6;fill-opacity:1;stroke-width:6.54;stroke-linecap:round;stroke-linejoin:round;stroke:#231f20;stroke-opacity:1;stroke-miterlimit:10" d="m583.826 659.705 60.044 297.874 722.286-582.653" transform="matrix(.09993 0 0 -.09993 0 188.766)"/><g clip-path="url(#j)"><path style="stroke:none;fill-rule:nonzero;fill:#ce8d99;fill-opacity:1" d="M.328 41.766 85.762.344 64.34 93.078Zm0 0"/></g><g clip-path="url(#k)"><path style="fill:none;stroke-width:6.54;stroke-linecap:round;stroke-linejoin:round;stroke:#231f20;stroke-opacity:1;stroke-miterlimit:10" d="m3.284 1471.08 854.961 414.522L643.87 957.579Zm0 0" transform="matrix(.09993 0 0 -.09993 0 188.766)"/></g><path style="fill-rule:nonzero;fill:#e1f3c5;fill-opacity:1;stroke-width:6.54;stroke-linecap:round;stroke-linejoin:round;stroke:#231f20;stroke-opacity:1;stroke-miterlimit:10" d="M583.826 659.705 3.284 1471.079l640.586-513.5Zm0 0" transform="matrix(.09993 0 0 -.09993 0 188.766)"/><g clip-path="url(#l)"><path style="stroke:none;fill-rule:nonzero;fill:#4d85cd;fill-opacity:1" d="M82.738 17.371 85.762.344.328 41.766Zm0 0"/></g><g clip-path="url(#m)"><path style="fill:none;stroke-width:6.54;stroke-linecap:round;stroke-linejoin:round;stroke:#231f20;stroke-opacity:1;stroke-miterlimit:10" d="m827.989 1715.203 30.256 170.399L3.284 1471.079Zm0 0" transform="matrix(.09993 0 0 -.09993 0 188.766)"/></g><g clip-path="url(#n)"><path style="stroke:none;fill-rule:nonzero;fill:#87d8f3;fill-opacity:1" d="M175.254 17.75 85.762.344 82.738 17.37Zm0 0"/></g><g clip-path="url(#o)"><path style="fill:none;stroke-width:6.54;stroke-linecap:round;stroke-linejoin:round;stroke:#231f20;stroke-opacity:1;stroke-miterlimit:10" d="m1753.822 1711.412-895.577 174.19-30.256-170.399Zm0 0" transform="matrix(.09993 0 0 -.09993 0 188.766)"/></g><g clip-path="url(#p)"><path style="fill-rule:nonzero;fill:#f6d39d;fill-opacity:1;stroke-width:6.54;stroke-linecap:round;stroke-linejoin:round;stroke:#231f20;stroke-opacity:1;stroke-miterlimit:10" d="m1609.224 884.127 435.983-129.353-291.385 956.638Zm0 0" transform="matrix(.09993 0 0 -.09993 0 188.766)"/></g><g clip-path="url(#q)"><path style="fill-rule:nonzero;fill:#e98b5f;fill-opacity:1;stroke-width:6.54;stroke-linecap:round;stroke-linejoin:round;stroke:#231f20;stroke-opacity:1;stroke-miterlimit:10" d="m1409.195 3.287 636.012 751.487-435.983 129.353Zm0 0" transform="matrix(.09993 0 0 -.09993 0 188.766)"/></g><path style="fill-rule:nonzero;fill:#8d62b2;fill-opacity:1;stroke-width:6.54;stroke-linecap:round;stroke-linejoin:round;stroke:#231f20;stroke-opacity:1;stroke-miterlimit:10" d="M827.989 1715.203 3.284 1471.08l580.542-811.374Zm0 0" transform="matrix(.09993 0 0 -.09993 0 188.766)"/><path style="fill-rule:nonzero;fill:#cdbed2;fill-opacity:1;stroke-width:6.54;stroke-linecap:round;stroke-linejoin:round;stroke:#231f20;stroke-opacity:1;stroke-miterlimit:10" d="m1753.822 1711.412-925.833 3.791 781.235-831.076Zm0 0" transform="matrix(.09993 0 0 -.09993 0 188.766)"/><g clip-path="url(#r)"><path style="stroke:none;fill-rule:nonzero;fill:#a25e96;fill-opacity:1" d="M160.805 100.418 58.34 122.844l82.476 65.594Zm0 0"/></g><g clip-path="url(#s)"><path style="fill:none;stroke-width:6.54;stroke-linecap:round;stroke-linejoin:round;stroke:#231f20;stroke-opacity:1;stroke-miterlimit:10" d="M1609.224 884.127 583.826 659.705l825.37-656.418Zm0 0" transform="matrix(.09993 0 0 -.09993 0 188.766)"/></g><path style="fill-rule:nonzero;fill:#a16eaf;fill-opacity:1;stroke-width:6.54;stroke-linecap:round;stroke-linejoin:round;stroke:#231f20;stroke-opacity:1;stroke-miterlimit:10" d="M827.989 1715.203 583.826 659.705l1025.398 224.422Zm0 0" transform="matrix(.09993 0 0 -.09993 0 188.766)"/></svg>
